X: 1
T: Walking Down Sheepscar Street
M: 6/8
L: 1/8
R: jig
K: Dmaj
~A3 AFA|Bcd efg|faf gfe|fed edB|
~A3 AFA|Bcd efg|faf gfe|1 dfe d2B:|2 dfe d2e||
fdd dcd|BAG A2G|FEF DEF|~G3 EFG|
f2d dcd|faf gfe|~f3 ede|1 fdc d2e:|2 fdc dcB||
